X:102217225607144
T:11-3-10-12-8-2-12-9-11-2-12-4-8-12-4-7
%%setfont-1 Courier-Bold 8
T:$1K.516f::3:06:42:103:99:122:106:94:102:121:108:132:43:124:145:151::$0
T:$1Perm. No.: 102217225607144$0
M:3/8
L:1/8
Q:1/8=111
%%staves [1 2]
V:1 clef=treble
V:2 clef=bass
K:C
%1
[V:1]|: gce |\
[V:2]|: [E,2C,2]z |\
%2
[V:1] Gce |\
[V:2] [E,2C,2]z |\
%3
[V:1] B/c/d/B/A/G/ |\
[V:2] G,,2z |\
%4
[V:1] c/e/c/G/E |\
[V:2] [E,2C,2]z |\
%5
[V:1] ^fad |\
[V:2] [A,2C,2][A,C,] |\
%6
[V:1] g/^f/g/b/d |\
[V:2] [D,B,,][D,B,,][G,B,,] |\
%7
[V:1] Ad/c/B/A/ \
[V:2] C,D,D,, \
%8a
[V:1]|1 [g2d2B2G2]z :|2
[V:2]|1 G,,G,/=F,/E,/D,/ :|2
%8b
[V:1] [g2d2B2G2]z |:\
[V:2] G,,B,/G,/^F,/E,/ |:\
%9
[V:1] ^f/d/A f |\
[V:2] [A,2C,2][A,C,] |\
%10
[V:1] gb/g/d |\
[V:2] [G,2B,,2]z |\
%11
[V:1] (egc') |\
[V:2] [G,2C,2][E,C,] |\
%12
[V:1] [ec][d/G/][B/G/]G |\
[V:2] G,G,,z |\
%13
[V:1] gf/e/d/c/ |\
[V:2] [E,2C,2]z |\
%14
[V:1] [cE][cE][cE] |\
[V:2] C,C,C,   |\
%15
[V:1] d/f/A/d/B/d/ |\
[V:2] F,2G, |\
%16
[V:1] c2z :|]
[V:2] C,G,,C,, :|]
